X: 26842
T: Mimi And The New Generation
R: polka
M: 2/4
K: Edorian
|:E/F/G/A/ Be|df B2|g>f ef|B2 B2|
b>a fe|fa Be|dB AF|1 B2 BG:|2 E2 EB||
|:b>a fe|fa B2|b>a fe|f2 f2|
b>a fe|fa Be|dB AF|1 B2 B2:|2 E2 EB||

